!!!id: EG010
!!!page: 23
!!!COM: Anonymous
!!!LYR: Anonymous
!!!PTL@@FR: Chansons Populaires du Canada
!!!OTL@@FR: Suivons le vent
!!!PUB: G. E. Desbarats
!!!YEM:
!!!PDT: 1865
!!!SMA:
!!!OMD:
!!!AGN-Laforte:
!!!AGN-type:
!!!AGN-rime:
**kern
*clefG2
*k[f#]
*G:
*M2/4
*
*
16g
8g
8g
=1
8a
8g
8a
8b/
=2
4cc
8a
16b/
16cc/
!!LO:PB:g=original
=3
4dd
8cc
8b
=4
8a
16r
16a
8a
8dd
=5
8dd
8b
8cc
8a
!!LO:PB:g=original
=6
4g
8.b/
16a
=7
8a
8g
8e
8g
=8
8a
8g
8b/
16a
16a
!!LO:PB:g=original
=9
8aL
8gJ
8e
8g
=10
8a
8g
8g
16a
16b/
=11
4cc
8dd
8b
!!LO:PB:g=original
=12
8.g
==||
16r
8r
!LO:TX:a:t=(backwards 8R at end)
==||
*
*
==|
